X: 1
T: Kilkenny
M: 6/8
L: 1/8
R: jig
K: Ador
cBA dcB|AEF GAB|cBA dcB|ABA A2B|
cBA dcB|AEF GAB|c2e dBG|1~A3 A2B:|2~A3 Aef||
~g3 agf|g2e edB|a2e a2e|a2e edB|
~g3 agf|g2e edB|c2e dBG|1~A3 Aef:|2~A3 A3||
